X:1
T: Miss Hutton
C:
R:Strathspey
Q: 128
K:Gm
M:4/4
L:1/16
|:A2|BF3 F3E DF3 F4|DG3 G3A B3c d3g|fd3 c3B ABc2 A3F|DG3 d3c BG3 G2A2|
BF3 F3E DF3 F4|DG3 G3A B3c d3g|fd3 c3B ABc2 A3F|DG3 d3c BG3 G2F2|
B3B d3B f3d c3B|ABc2 f3d cf3 A3F|G3A B3d g^fga g2d2|b3a g3^f ggg2 g3a|
gab2 g3d efg2 e3c|dcBA B3G ^F3A Dd3|B3d G3d c3e d3c|B3G BAG^F DG3 G2:|
